svg/set/KHM/T.svg

<?xml version="1.0" encoding="UTF-8" standalone="no"?>
<svg
   width="467.88297"
   height="512.96124"
   viewBox="0 0 467.88297 512.96124"
   version="1.1"
   xml:space="preserve"
   style="clip-rule:evenodd;fill-rule:evenodd;stroke-linejoin:round;stroke-miterlimit:2"
   id="svg6"
   xmlns="http://www.w3.org/2000/svg"
   xmlns:svg="http://www.w3.org/2000/svg">
    <path
   d="M 155.35449,0 C 78.140487,21.945 29.941487,77.436 8.941487,111.686 c -11.5,58.5 -12.25,118.25 -0.25,189.25 58.5,35 68.5,107.5 61.75,144.5 35.416003,-15.315 72.136003,-49.667 94.250003,-100 -22.446,3.113 -37.586,-12.836 -29.75,-39.75 2.974,-10.212 38.444,-42.34 38.444,-42.34 h 24.185 v 109.34 c 0,0 -4.379,41.5 -42.879,73.75 4.75,5.75 18.375,12.5 18.375,12.5 0,0 -14.482,12.891 -22.187,17 43.062,49.367 123.062,49.367 166.125,0 -7.705,-4.109 -22.188,-17 -22.188,-17 0,0 13.625,-6.75 18.375,-12.5 -38.5,-32.25 -42.878,-73.75 -42.878,-73.75 v -109.34 h 24.185 c 0,0 35.47,32.128 38.443,42.34 7.837,26.914 -7.303,42.863 -29.75,39.75 22.115,50.333 58.834,84.685 94.25,100 -6.75,-37 3.25,-109.5 61.75,-144.5 12,-71 11.25,-130.75 -0.25,-189.25 -21,-34.25 -69.198,-89.741 -146.412,-111.686 2.712,2.873 8.004,17.514 8.004,17.514 l 13.658,79.547 -40.625,42.625 h -17.625 l -42,-100.526 -42,100.526 h -17.625 l -40.625,-42.625 13.659,-79.547 c 0,0 5.292,-14.641 8.004,-17.514 z"
   style="fill-rule:nonzero"
   id="path1" />
    <path
   d="m 132.47949,23.188 c -77.004003,33.894 -98.890003,79.833 -109.395003,92.386 -9.342,47.709 -13.508,103.45 -1.31,176.168 46.432,33.659 66.329,89.976 64.578,127.531 26.287003,-17.969 36.944003,-28.326 55.713003,-60.755 -22.401,-17.246 -83.254003,-84.202 -54.395003,-191.905 2.139,-7.983 5.73,-10.906 3.84,0.787 -11.416,70.631 6.344,110.592 27.580003,143.018 1.166,-5.551 4.465,-12.569 10.687,-22.871 5.499,-9.104 39.366,-38.854 39.366,-38.854 h 43.259 v 109.918 c 0,0 0,53.315 -33.669,86.057 4.75,5.75 19.435,7.904 19.435,7.904 0,0 -15.682,21.653 -23.387,25.762 28.321,23.43 52.149,21.812 59.16,21.812 7.012,0 30.84,1.618 59.161,-21.812 -7.705,-4.109 -23.387,-25.762 -23.387,-25.762 0,0 14.685,-2.154 19.435,-7.904 -33.669,-32.742 -33.669,-86.057 -33.669,-86.057 V 248.693 h 43.259 c 0,0 33.867,29.75 39.366,38.854 6.222,10.302 9.521,17.32 10.687,22.871 21.236,-32.426 38.996,-72.387 27.58,-143.018 -1.89,-11.693 1.701,-8.77 3.84,-0.787 28.859,107.703 -31.994,174.659 -54.395,191.905 18.769,32.429 29.426,42.786 55.713,60.755 -1.751,-37.555 18.146,-93.872 64.578,-127.531 12.198,-72.718 8.032,-128.459 -1.31,-176.168 -10.505,-12.553 -32.391,-58.492 -109.395,-92.386 l 12.366,80.113 -47.614,50.64 h -39.373 v -13.902 l -26.842,-64.154 -26.841,64.154 v 13.902 h -39.373 l -47.614,-50.64 z"
   style="fill:url(#_Linear1);fill-rule:nonzero"
   id="path2" />
    <defs
   id="defs6">
        <linearGradient
   id="_Linear1"
   x1="0"
   y1="0"
   x2="1"
   y2="0"
   gradientUnits="userSpaceOnUse"
   gradientTransform="matrix(439.436,0,0,439.436,14.224187,202.685)"><stop
     offset="0"
     style="stop-color:rgb(97,44,117);stop-opacity:1"
     id="stop2" /><stop
     offset="0.2"
     style="stop-color:rgb(123,81,144);stop-opacity:1"
     id="stop3" /><stop
     offset="0.5"
     style="stop-color:rgb(191,153,195);stop-opacity:1"
     id="stop4" /><stop
     offset="0.8"
     style="stop-color:rgb(123,81,144);stop-opacity:1"
     id="stop5" /><stop
     offset="1"
     style="stop-color:rgb(97,44,117);stop-opacity:1"
     id="stop6" /></linearGradient>
    </defs>
</svg>

<?xml version="1.0" encoding="UTF-8" standalone="no"?>
<!DOCTYPE svg PUBLIC "-//W3C//DTD SVG 1.1//EN" "http://www.w3.org/Graphics/SVG/1.1/DTD/svg11.dtd">
<svg width="100%" height="100%" viewBox="0 0 468 513" version="1.1" xmlns="http://www.w3.org/2000/svg" xmlns:xlink="http://www.w3.org/1999/xlink" xml:space="preserve" xmlns:serif="http://www.serif.com/" style="fill-rule:evenodd;clip-rule:evenodd;stroke-linejoin:round;stroke-miterlimit:2;">
    <path d="M155.354,0C78.14,21.945 29.941,77.436 8.941,111.686C-2.559,170.186 -3.309,229.936 8.691,300.936C67.191,335.936 77.191,408.436 70.441,445.436C105.857,430.121 142.577,395.769 164.691,345.436C142.245,348.549 127.105,332.6 134.941,305.686C137.915,295.474 173.385,263.346 173.385,263.346L197.57,263.346L197.57,372.686C197.57,372.686 193.191,414.186 154.691,446.436C159.441,452.186 173.066,458.936 173.066,458.936C173.066,458.936 158.584,471.827 150.879,475.936C193.941,525.303 273.941,525.303 317.004,475.936C309.299,471.827 294.816,458.936 294.816,458.936C294.816,458.936 308.441,452.186 313.191,446.436C274.691,414.186 270.313,372.686 270.313,372.686L270.313,263.346L294.498,263.346C294.498,263.346 329.968,295.474 332.941,305.686C340.778,332.6 325.638,348.549 303.191,345.436C325.306,395.769 362.025,430.121 397.441,445.436C390.691,408.436 400.691,335.936 459.191,300.936C471.191,229.936 470.441,170.186 458.941,111.686C437.941,77.436 389.743,21.945 312.529,0C315.241,2.873 320.533,17.514 320.533,17.514L334.191,97.061L293.566,139.686L275.941,139.686L233.941,39.16L191.941,139.686L174.316,139.686L133.691,97.061L147.35,17.514C147.35,17.514 152.642,2.873 155.354,0Z" style="fill-rule:nonzero;"/>
    <path d="M132.479,23.188C55.475,57.082 33.589,103.021 23.084,115.574C13.742,163.283 9.576,219.024 21.774,291.742C68.206,325.401 88.103,381.718 86.352,419.273C112.639,401.304 123.296,390.947 142.065,358.518C119.664,341.272 58.811,274.316 87.67,166.613C89.809,158.63 93.4,155.707 91.51,167.4C80.094,238.031 97.854,277.992 119.09,310.418C120.256,304.867 123.555,297.849 129.777,287.547C135.276,278.443 169.143,248.693 169.143,248.693L212.402,248.693L212.402,358.611C212.402,358.611 212.402,411.926 178.733,444.668C183.483,450.418 198.168,452.572 198.168,452.572C198.168,452.572 182.486,474.225 174.781,478.334C203.102,501.764 226.93,500.146 233.941,500.146C240.953,500.146 264.781,501.764 293.102,478.334C285.397,474.225 269.715,452.572 269.715,452.572C269.715,452.572 284.4,450.418 289.15,444.668C255.481,411.926 255.481,358.611 255.481,358.611L255.481,248.693L298.74,248.693C298.74,248.693 332.607,278.443 338.106,287.547C344.328,297.849 347.627,304.867 348.793,310.418C370.029,277.992 387.789,238.031 376.373,167.4C374.483,155.707 378.074,158.63 380.213,166.613C409.072,274.316 348.219,341.272 325.818,358.518C344.587,390.947 355.244,401.304 381.531,419.273C379.78,381.718 399.677,325.401 446.109,291.742C458.307,219.024 454.141,163.283 444.799,115.574C434.294,103.021 412.408,57.082 335.404,23.188L347.77,103.301L300.156,153.941L260.783,153.941L260.783,140.039L233.941,75.885L207.1,140.039L207.1,153.941L167.727,153.941L120.113,103.301L132.479,23.188Z" style="fill:url(#_Linear1);fill-rule:nonzero;"/>
    <defs>
        <linearGradient id="_Linear1" x1="0" y1="0" x2="1" y2="0" gradientUnits="userSpaceOnUse" gradientTransform="matrix(439.436,0,0,439.436,14.2237,202.685)"><stop offset="0" style="stop-color:rgb(97,44,117);stop-opacity:1"/><stop offset="0.2" style="stop-color:rgb(123,81,144);stop-opacity:1"/><stop offset="0.5" style="stop-color:rgb(191,153,195);stop-opacity:1"/><stop offset="0.8" style="stop-color:rgb(123,81,144);stop-opacity:1"/><stop offset="1" style="stop-color:rgb(97,44,117);stop-opacity:1"/></linearGradient>
    </defs>
</svg>
